app/images/icon/icon-svg/ophthalmology.svg

<svg width="110" height="110" viewBox="0 0 110 110" fill="none" xmlns="http://www.w3.org/2000/svg">
<path d="M110 22.7734V3.22266C110 1.44289 108.557 0 106.777 0C94.8148 0 82.5784 3.45598 72.0558 9.77024C71.9772 9.7335 71.8985 9.69697 71.8169 9.66668C66.4411 7.67164 60.7829 6.66016 55 6.66016C49.0695 6.66016 43.303 7.72385 37.9152 9.75562C27.4029 3.45619 15.1506 0 3.22266 0C1.44289 0 0 1.44289 0 3.22266V22.7734C0 29.5653 3.30537 36.1743 8.85672 40.5258C7.41211 45.1501 6.66016 50.0169 6.66016 55C6.66016 67.5204 11.5483 79.7251 20.1062 88.6662C22.2767 97.7195 30.1553 103.555 38.8867 103.555C39.9158 103.555 40.9318 103.471 41.9291 103.315C44.929 107.49 49.7387 110 55 110C60.2613 110 65.071 107.49 68.0709 103.315C69.0682 103.471 70.0842 103.555 71.1133 103.555C79.9156 103.555 87.708 97.6731 89.8883 88.672C98.4494 79.7302 103.34 67.523 103.34 55C103.34 51.4613 102.959 47.9699 102.208 44.5607C108.365 39.7237 110 28.2208 110 22.7734ZM6.44531 22.7734V6.5377C14.76 7.01207 23.1473 9.30252 30.7575 13.159C22.5865 17.9113 15.6516 25.1859 11.3588 34.1571C8.25129 31.0905 6.44531 26.9704 6.44531 22.7734ZM55 103.555C52.5246 103.555 50.2171 102.626 48.467 101.018C51.0542 99.5371 53.3017 97.4705 55 94.8941C56.6966 97.4682 58.9439 99.5358 61.533 101.018C59.7828 102.626 57.4754 103.555 55 103.555ZM51.9819 73.2057C52.4408 71.9845 53.6205 71.1133 55 71.1133C56.3795 71.1133 57.5592 71.9845 58.0181 73.2057L55 76.2238L51.9819 73.2057ZM83.6247 87.1656C82.1395 93.3234 76.8591 97.1094 71.1133 97.1094C63.2135 97.1094 57.1418 90.1132 58.3804 81.9584L63.7242 76.6146C64.3285 76.0102 64.668 75.1906 64.668 74.3359C64.668 69.005 60.3309 64.668 55 64.668C49.6691 64.668 45.332 69.005 45.332 74.3359C45.332 75.1906 45.6715 76.0102 46.2761 76.6146L51.6201 81.9586C52.8617 90.1366 46.7633 97.1094 38.8867 97.1094C31.6699 97.1094 25.9961 91.2796 25.9961 84.0039C25.9961 80.5608 27.3369 77.3236 29.7715 74.8887C31.0301 73.6302 31.0301 71.5898 29.7715 70.3312C28.5132 69.0729 26.4726 69.0729 25.2141 70.3312C22.8607 72.6846 21.1935 75.5393 20.3019 78.6528C15.6709 71.7413 13.1055 63.456 13.1055 55C13.1055 41.563 19.4655 29.5848 29.332 21.9132L83.8539 85.9794C83.7027 86.3595 83.6256 86.7623 83.6247 87.1656ZM96.2352 62.4149L82.7462 46.4731C81.5966 45.1146 79.5633 44.9447 78.2042 46.0945C76.8457 47.2444 76.6762 49.2776 77.8256 50.6363L94.166 69.9482C92.6821 73.9 90.62 77.6213 88.0408 80.9546L34.7503 18.3354C38.4489 16.2847 42.4875 14.7767 46.7597 13.9212L77.8256 50.6363C78.9763 51.9961 81.0101 52.1636 82.3677 51.0149C83.7261 49.8652 83.8956 47.832 82.7462 46.4731L54.5179 13.1117C59.5192 13.0546 64.3438 13.86 68.9245 15.4741C69.963 16.5127 93.4873 40.0372 94.5259 41.0758C96.0979 45.537 96.8945 50.2178 96.8945 55C96.8945 57.4969 96.6696 59.9786 96.2352 62.4149ZM99.9625 37.478C99.8519 37.3173 99.7296 37.1643 99.5908 37.0255L76.9476 14.3823C85.1492 9.7827 94.3809 7.05826 103.555 6.53727V22.7734C103.555 27.6803 102.219 33.9131 99.9625 37.478Z" fill="#FFC59E"/>
<path d="M35.6641 45.332C30.3331 45.332 25.9961 49.6691 25.9961 55C25.9961 60.3309 30.3331 64.668 35.6641 64.668C40.995 64.668 45.332 60.3309 45.332 55C45.332 49.6691 40.995 45.332 35.6641 45.332ZM35.6641 58.2227C33.8871 58.2227 32.4414 56.777 32.4414 55C32.4414 53.223 33.8871 51.7773 35.6641 51.7773C37.441 51.7773 38.8867 53.223 38.8867 55C38.8867 56.777 37.441 58.2227 35.6641 58.2227Z" fill="#FFC59E"/>
</svg>

<svg width="110" height="110" fill="none" xmlns="http://www.w3.org/2000/svg"><path d="M110 22.773V3.223A3.223 3.223 0 00106.777 0C94.815 0 82.578 3.456 72.056 9.77a3.18 3.18 0 00-.24-.103A48.173 48.173 0 0055 6.66a48.335 48.335 0 00-17.085 3.096C27.403 3.456 15.151 0 3.223 0A3.223 3.223 0 000 3.223v19.55c0 6.792 3.305 13.401 8.857 17.753A48.48 48.48 0 006.66 55c0 12.52 4.888 24.725 13.446 33.666 2.17 9.053 10.05 14.889 18.78 14.889 1.03 0 2.046-.084 3.043-.24C44.93 107.49 49.74 110 55 110s10.071-2.51 13.07-6.685c.998.156 2.014.24 3.043.24 8.803 0 16.595-5.882 18.775-14.883C98.45 79.73 103.34 67.523 103.34 55c0-3.539-.381-7.03-1.132-10.44C108.365 39.725 110 28.22 110 22.774zm-103.555 0V6.538c8.315.474 16.702 2.765 24.313 6.621-8.171 4.752-15.106 12.027-19.4 20.998-3.107-3.066-4.913-7.187-4.913-11.384zM55 103.555a9.624 9.624 0 01-6.533-2.537A19.256 19.256 0 0055 94.894a19.259 19.259 0 006.533 6.124A9.624 9.624 0 0155 103.555zm-3.018-30.35A3.228 3.228 0 0155 71.114c1.38 0 2.56.871 3.018 2.093L55 76.224l-3.018-3.018zm31.643 13.96c-1.486 6.158-6.766 9.944-12.512 9.944-7.9 0-13.971-6.996-12.733-15.15l5.344-5.344a3.223 3.223 0 00.944-2.28c0-5.33-4.337-9.667-9.668-9.667-5.33 0-9.668 4.337-9.668 9.668 0 .855.34 1.674.944 2.279l5.344 5.344c1.242 8.178-4.857 15.15-12.733 15.15-7.217 0-12.89-5.83-12.89-13.105 0-3.443 1.34-6.68 3.774-9.115a3.222 3.222 0 10-4.557-4.558 19.227 19.227 0 00-4.912 8.322A42.666 42.666 0 0113.105 55c0-13.437 6.36-25.415 16.227-33.087L83.854 85.98a3.23 3.23 0 00-.23 1.187zm12.61-24.75L82.746 46.473a3.223 3.223 0 00-4.92 4.163l16.34 19.312a42.281 42.281 0 01-6.125 11.007l-53.29-62.62a41.595 41.595 0 0112.009-4.414l31.066 36.715a3.223 3.223 0 004.92-4.163L54.518 13.112a41.69 41.69 0 0114.406 2.362l25.602 25.602A41.769 41.769 0 0196.894 55a42.25 42.25 0 01-.659 7.415zm3.728-24.937a3.21 3.21 0 00-.372-.453L76.948 14.383c8.201-4.6 17.433-7.324 26.607-7.845v16.236c0 4.907-1.336 11.14-3.593 14.705z" fill="#FFC59E"/><path d="M35.664 45.332c-5.33 0-9.668 4.337-9.668 9.668 0 5.33 4.337 9.668 9.668 9.668 5.331 0 9.668-4.337 9.668-9.668 0-5.33-4.337-9.668-9.668-9.668zm0 12.89A3.226 3.226 0 0132.441 55a3.226 3.226 0 013.223-3.223A3.226 3.226 0 0138.887 55a3.226 3.226 0 01-3.223 3.223z" fill="#FFC59E"/></svg>
